X:1
T:100 Progress Recreations
T:100 Progressive Recreations No. 1
T:C. CZERNY
T:Public Domain
C:C. Czerny
Z:Public Domain
%%score { 1 | 2 }
L:1/8
M:2/4
K:C
V:1 treble nm="Piano" snm="Pno."
V:2 treble 
V:1
 !1!c2 !1!c2 | !5!g2 g2 | !4!f2 f2 | !3!e4 | !2!d2 d2 | !4!f2 f2 | !3!e2 !2!d2 | !1!c4 :: %8
 !2!d2 d2 | !4!f2 f2 | !3!e2 e2 | !5!g4 | !2!d2 d2 | !4!f2 f2 | !3!e2 e2 | !5!g4 | !1!c2 c2 | %17
 !5!g2 g2 | !4!f2 f2 | !3!e4 | !2!d2 d2 | !4!f2 !2!d2 | !1!c2 !3!e2 | !1!c4 :| %24
V:2
 !5!C4 | !3!E4 | !4!D4 | !5!C4 | !2!F4 | !4!D4 | !1!G4 | !5!C4 :: !1!G4 | !1!G4 | !5!C4 | !3!E4 | %12
 !1!G4 | G4 | !5!C4 | !3!E4 | !5!C4 | !3!E4 | !4!D4 | !5!C4 | !1!G4 | !1!G4 | !5!C4 | !5!C4 :| %24

